X:166
T:Rachel Rae
K:D
M:C
L:1/8
C:John Lowe
A,|"D"D2 FA d2 A-c|"D"d2 fd "A"e2 cA|"D"d2 A-d "G"BAGF|"A"E2 A-E "D"FDD:||!
A|"D"defg a2 fd|"Em"g2 bg "A"e2 cA|"D"defg a2 fd| "A7"egfe "D"fddA|!
"D"defg fafd| "Em"g2 bg "A"e2 cA| "D"d2 A-d "G"BAGF|"A"E2 AE "D"FDD:||
% <A name="D1X167">
